X:245
T:Steirische Jodler und Taenze Nr. 1 - 48 (43.)
C:traditionell
A:Salzkammergut
S:MIDI erhalten von Christian Amon. Nach einer kopie im besitz von Johann Stoeckl eines manuscriptes. Stoeckl(zitiert von Amon): "diese sammlung wurde 1935 im hause der familie Hohenlohe-Schillingfuerst gefunden. Sie wurde von einem der beiden brueder Steinegger 1866 verfasst. Die originale sind im Ausseer Kammerhofmuseum".
M:3/4
L:1/8
K:G
V:1
DF |\
GD G3 A | Bg G3 B | BF A2 BA | AG G2 DF |\
GD G3 A | Bg G3 B | BF A3 f | G4 |*
V:2
GA |\
BG B3 c | db B3 d | dA c2 dc | cB B2 GA |\
BG B3 c | db B3 d | dA c3 a | B4 |*
